; generated by Slic3r 1.3.0 on 2019-05-19 at 11:33:12

; external perimeters extrusion width = 5.50mm (158.56mm^3/s)
; perimeters extrusion width = 7.00mm (407.12mm^3/s)
; infill extrusion width = 6.25mm (482.83mm^3/s)
; solid infill extrusion width = 7.00mm (135.71mm^3/s)
; top infill extrusion width = 7.00mm (101.78mm^3/s)

M107
M104 S55 ; set temperature
G28 ; home all axes
G1 Z5 F5000 ; lift nozzle

; Filament gcode

M109 S55 ; set temperature and wait for it to be reached
G21 ; set units to millimeters
G90 ; use absolute coordinates
M82 ; use absolute distances for extrusion
G92 E0
G1 Z6.000 F7800.000
G1 E-2.00000 F2400.00000
G92 E0
G1 X44.763 Y45.292 F7800.000
G1 E2.00000 F2400.00000
G1 F1800
G1 X46.233 Y43.847 E5.44321
G1 X48.160 Y42.063 E9.82914
G1 X50.147 Y40.345 E14.21512
G1 X52.636 Y38.350 E19.54360
G1 X54.288 Y37.116 E22.98693
G1 X56.438 Y35.608 E27.37288
G1 X59.116 Y33.875 E32.70137
G1 X60.884 Y32.814 E36.14457
G1 X63.176 Y31.531 E40.53062
G1 X66.016 Y30.078 E45.85919
G1 X68.397 Y28.970 E50.24494
G1 X70.291 Y28.157 E53.68839
G1 X73.264 Y26.998 E59.01667
G1 X75.209 Y26.315 E62.46008
G1 X77.712 Y25.520 E66.84603
G1 X80.240 Y24.810 E71.23204
G1 X83.342 Y24.062 E76.56065
G1 X85.361 Y23.647 E80.00384
G1 X87.949 Y23.196 E84.38973
G1 X91.110 Y22.766 E89.71836
G1 X93.724 Y22.510 E94.10426
G1 X95.781 Y22.371 E97.54759
G1 X98.969 Y22.263 E102.87611
G1 X101.595 Y22.273 E107.26193
G1 X103.656 Y22.342 E110.70531
G1 X106.839 Y22.558 E116.03385
G1 X108.890 Y22.766 E119.47708
G1 X111.493 Y23.111 E123.86298
G1 X114.639 Y23.647 E129.19149
G1 X117.209 Y24.185 E133.57747
G1 X119.213 Y24.668 E137.02073
G1 X122.288 Y25.520 E142.34941
G1 X124.791 Y26.315 E146.73535
G1 X127.265 Y27.194 E151.12092
G1 X129.186 Y27.943 E154.56440
G1 X132.118 Y29.201 E159.89302
G1 X134.491 Y30.326 E164.27870
G1 X136.326 Y31.265 E167.72219
G1 X139.116 Y32.814 E173.05077
G1 X140.884 Y33.875 E176.49399
G1 X143.094 Y35.293 E180.87988
G1 X145.712 Y37.116 E186.20827
G1 X147.974 Y38.827 E190.94430
G1 X149.853 Y40.345 E194.98028
G1 X151.418 Y41.688 E198.42347
G1 X153.767 Y43.847 E203.75204
G1 X155.237 Y45.292 E207.19526
G1 X157.053 Y47.189 E211.58114
G1 X159.172 Y49.574 E216.90972
G1 X160.841 Y51.602 E221.29544
G1 X162.103 Y53.232 E224.73902
G1 X163.970 Y55.819 E230.06738
G1 X165.119 Y57.531 E233.51087
G1 X166.516 Y59.755 E237.89656
G1 X167.837 Y62.024 E242.28259
G1 X169.338 Y64.840 E247.61109
G1 X170.486 Y67.201 E251.99675
G1 X171.331 Y69.082 E255.44046
G1 X172.540 Y72.035 E260.76882
G1 X173.443 Y74.501 E265.15464
G1 X174.093 Y76.457 E268.59812
G1 X174.997 Y79.517 E273.92624
G1 X175.513 Y81.513 E277.36996
G1 X176.095 Y84.074 E281.75587
G1 X176.684 Y87.209 E287.08429
G1 X176.996 Y89.248 E290.52782
G1 X177.316 Y91.854 E294.91350
G1 X177.585 Y95.033 E300.24183
G1 X177.712 Y97.866 E304.97796
G1 X177.743 Y100.282 E309.01386
G1 X177.708 Y102.344 E312.45706
G1 X177.547 Y105.530 E317.78569
G1 X177.373 Y107.584 E321.22887
G1 X177.072 Y110.193 E325.61495
G1 X176.589 Y113.347 E330.94361
G1 X176.208 Y115.373 E334.38681
G1 X175.646 Y117.938 E338.77257
G1 X174.846 Y121.027 E344.10116
G1 X174.262 Y123.004 E347.54438
G1 X173.443 Y125.499 E351.93033
G1 X172.335 Y128.491 E357.25891
G1 X171.331 Y130.918 E361.64485
G1 X170.486 Y132.798 E365.08805
G1 X169.338 Y135.160 E369.47398
G1 X167.837 Y137.975 E374.80237
G1 X166.516 Y140.245 E379.18847
G1 X165.425 Y141.995 E382.63187
G1 X163.648 Y144.644 E387.95980
G1 X162.441 Y146.316 E391.40363
G1 X160.841 Y148.398 E395.78950
G1 X158.804 Y150.854 E401.11806
G1 X157.053 Y152.811 E405.50406
G1 X155.633 Y154.305 E408.94736
G1 X153.358 Y156.542 E414.27590
G1 X151.259 Y158.448 E419.01139
G1 X149.419 Y160.015 E423.04764
G1 X147.810 Y161.305 E426.49085
G1 X145.255 Y163.215 E431.81941
G1 X143.562 Y164.392 E435.26261
G1 X141.363 Y165.827 E439.64862
G1 X138.627 Y167.469 E444.97707
G1 X136.824 Y168.469 E448.42034
G1 X134.491 Y169.674 E452.80626
G1 X131.603 Y171.030 E458.13496
G1 X128.991 Y172.133 E462.87086
G1 X126.736 Y173.002 E466.90616
G1 X124.791 Y173.685 E470.34979
G1 X121.747 Y174.640 E475.67847
G1 X119.760 Y175.190 E479.12167
G1 X117.209 Y175.815 E483.50750
G1 X114.084 Y176.457 E488.83596
G1 X111.494 Y176.889 E493.22188
G1 X109.451 Y177.167 E496.66538
G1 X106.276 Y177.490 E501.99394
G1 X104.219 Y177.629 E505.43714
G1 X101.595 Y177.727 E509.82302
G1 X98.405 Y177.727 E515.15140
G1 X95.781 Y177.629 E519.53722
G1 X93.724 Y177.490 E522.98077
G1 X90.549 Y177.167 E528.30933
G1 X87.949 Y176.804 E532.69521
G1 X85.916 Y176.457 E536.13863
G1 X82.791 Y175.815 E541.46682
G1 X80.240 Y175.191 E545.85278
G1 X78.253 Y174.640 E549.29625
G1 X75.209 Y173.685 E554.62495
G1 X73.264 Y173.002 E558.06815
G1 X70.814 Y172.057 E562.45403
G1 X67.882 Y170.799 E567.78268
G1 X66.016 Y169.922 E571.22588
G1 X63.674 Y168.735 E575.61176
G1 X60.884 Y167.186 E580.94048
G1 X59.116 Y166.125 E584.38369
G1 X56.906 Y164.707 E588.76938
G1 X54.288 Y162.884 E594.09796
G1 X52.026 Y161.174 E598.83373
G1 X50.147 Y159.655 E602.86983
G1 X48.582 Y158.312 E606.31303
G1 X46.233 Y156.153 E611.64172
G1 X44.763 Y154.708 E615.08494
G1 X42.947 Y152.811 E619.47063
G1 X40.828 Y150.426 E624.79935
G1 X39.512 Y148.839 E628.24256
G1 X37.897 Y146.768 E632.62854
G1 X36.030 Y144.181 E637.95680
G1 X34.575 Y141.995 E642.34293
G1 X33.484 Y140.245 E645.78629
G1 X31.889 Y137.482 E651.11464
G1 X30.662 Y135.160 E655.50081
G1 X29.514 Y132.798 E659.88663
G1 X28.669 Y130.918 E663.32997
G1 X27.460 Y127.965 E668.65841
G1 X26.744 Y126.032 E672.10169
G1 X25.907 Y123.543 E676.48773
G1 X25.003 Y120.483 E681.81633
G1 X24.309 Y117.734 E686.55225
G1 X23.792 Y115.373 E690.58799
G1 X23.411 Y113.347 E694.03120
G1 X22.928 Y110.193 E699.35961
G1 X22.684 Y108.146 E702.80306
G1 X22.453 Y105.530 E707.18896
G1 X22.292 Y102.344 E712.51758
G1 X22.257 Y99.718 E716.90333
G1 X22.292 Y97.656 E720.34674
G1 X22.453 Y94.470 E725.67530
G1 X22.684 Y91.854 E730.06125
G1 X22.928 Y89.807 E733.50445
G1 X23.411 Y86.653 E738.83303
G1 X23.792 Y84.627 E742.27632
G1 X24.354 Y82.062 E746.66220
G1 X25.154 Y78.973 E751.99081
G1 X25.738 Y76.996 E755.43401
G1 X26.557 Y74.501 E759.81996
G1 X27.460 Y72.035 E764.20594
G1 X28.669 Y69.082 E769.53432
G1 X29.514 Y67.202 E772.97769
G1 X30.662 Y64.840 E777.36369
G1 X32.163 Y62.024 E782.69225
G1 X33.193 Y60.239 E786.13545
G1 X34.574 Y58.005 E790.52140
G1 X36.353 Y55.356 E795.84999
G1 X37.559 Y53.684 E799.29319
G1 X39.159 Y51.602 E803.67907
G1 X41.196 Y49.146 E809.00760
G1 X42.565 Y47.605 E812.45087
G1 X44.239 Y45.829 E816.52706
G1 E814.52706 F2400.00000
G92 E0
G1 X75.780 Y76.711 F7800.000
G1 E2.00000 F2400.00000
G1 F1800
G1 X76.817 Y75.674 E4.44984
G1 X77.810 Y74.767 E6.69563
G1 X78.545 Y74.136 E8.31262
G1 X79.431 Y73.427 E10.20843
G1 X80.340 Y72.747 E12.10422
G1 X81.271 Y72.099 E13.99998
G1 X82.225 Y71.482 E15.89588
G1 X83.198 Y70.898 E17.79169
G1 X84.190 Y70.347 E19.68741
G1 X85.163 Y69.849 E21.51185
G1 X86.382 Y69.281 E23.75761
G1 X87.271 Y68.900 E25.37458
G1 X88.329 Y68.487 E27.27051
G1 X89.400 Y68.111 E29.16639
G1 X90.483 Y67.771 E31.06210
G1 X91.577 Y67.468 E32.95784
G1 X92.681 Y67.203 E34.85365
G1 X93.792 Y66.974 E36.74947
G1 X94.911 Y66.783 E38.64530
G1 X96.036 Y66.630 E40.54108
G1 X97.165 Y66.515 E42.43683
G1 X98.298 Y66.439 E44.33266
G1 X99.390 Y66.402 E46.15709
G1 X100.734 Y66.406 E48.40284
G1 X101.702 Y66.439 E50.01992
G1 X102.835 Y66.515 E51.91574
G1 X103.964 Y66.630 E53.81151
G1 X105.089 Y66.783 E55.70729
G1 X106.208 Y66.974 E57.60309
G1 X107.319 Y67.203 E59.49892
G1 X108.423 Y67.468 E61.39477
G1 X109.517 Y67.771 E63.29051
G1 X110.600 Y68.111 E65.18618
G1 X111.671 Y68.487 E67.08208
G1 X112.729 Y68.900 E68.97798
G1 X113.732 Y69.330 E70.80229
G1 X114.948 Y69.906 E73.04809
G1 X115.810 Y70.347 E74.66511
G1 X116.765 Y70.877 E76.48949
G1 X117.916 Y71.573 E78.73533
G1 X118.729 Y72.099 E80.35239
G1 X119.660 Y72.747 E82.24816
G1 X120.569 Y73.427 E84.14395
G1 X121.455 Y74.136 E86.03973
G1 X122.316 Y74.876 E87.93553
G1 X123.152 Y75.644 E89.83139
G1 X123.962 Y76.440 E91.72720
G1 X124.744 Y77.262 E93.62295
G1 X125.498 Y78.111 E95.51880
G1 X126.222 Y78.985 E97.41458
G1 X126.891 Y79.849 E99.23890
G1 X127.674 Y80.941 E101.48464
G1 X128.214 Y81.745 E103.10176
G1 X128.814 Y82.709 E104.99768
G1 X129.382 Y83.692 E106.89342
G1 X129.916 Y84.693 E108.78921
G1 X130.416 Y85.712 E110.68492
G1 X130.881 Y86.748 E112.58068
G1 X131.311 Y87.799 E114.47664
G1 X131.705 Y88.863 E116.37248
G1 X132.063 Y89.940 E118.26816
G1 X132.385 Y91.029 E120.16396
G1 X132.669 Y92.128 E122.05976
G1 X132.907 Y93.194 E123.88425
G1 X133.151 Y94.516 E126.12994
G1 X133.298 Y95.473 E127.74694
G1 X133.432 Y96.600 E129.64286
G1 X133.524 Y97.689 E131.46721
G1 X133.588 Y99.032 E133.71300
G1 X133.604 Y100.000 E135.33000
G1 X133.585 Y101.135 E137.22583
G1 X133.528 Y102.269 E139.12163
G1 X133.432 Y103.400 E141.01738
G1 X133.298 Y104.527 E142.91330
G1 X133.126 Y105.649 E144.80906
G1 X132.916 Y106.764 E146.70475
G1 X132.669 Y107.872 E148.60067
G1 X132.385 Y108.971 E150.49647
G1 X132.063 Y110.060 E152.39231
G1 X131.705 Y111.137 E154.28797
G1 X131.311 Y112.201 E156.18378
G1 X130.881 Y113.252 E158.07973
G1 X130.416 Y114.288 E159.97552
G1 X129.916 Y115.307 E161.87124
G1 X129.382 Y116.308 E163.76700
G1 X128.814 Y117.291 E165.66278
G1 X128.236 Y118.218 E167.48729
G1 X127.484 Y119.332 E169.73313
G1 X126.917 Y120.118 E171.35003
G1 X126.222 Y121.015 E173.24586
G1 X125.498 Y121.889 E175.14170
G1 X124.744 Y122.738 E177.03745
G1 X123.962 Y123.560 E178.93322
G1 X123.152 Y124.356 E180.82911
G1 X122.316 Y125.124 E182.72492
G1 X121.455 Y125.864 E184.62070
G1 X120.569 Y126.573 E186.51647
G1 X119.660 Y127.253 E188.41231
G1 X118.729 Y127.901 E190.30801
G1 X117.811 Y128.495 E192.13241
G1 X116.656 Y129.183 E194.37832
G1 X115.810 Y129.653 E195.99533
G1 X114.799 Y130.170 E197.89116
G1 X113.772 Y130.653 E199.78690
G1 X112.729 Y131.100 E201.68266
G1 X111.671 Y131.513 E203.57857
G1 X110.600 Y131.889 E205.47437
G1 X109.517 Y132.229 E207.37007
G1 X108.423 Y132.532 E209.26591
G1 X107.319 Y132.797 E211.16175
G1 X106.208 Y133.026 E213.05754
G1 X105.089 Y133.217 E214.95332
G1 X103.964 Y133.370 E216.84911
G1 X102.835 Y133.485 E218.74493
G1 X101.702 Y133.561 E220.64072
G1 X100.568 Y133.600 E222.53656
G1 X99.432 Y133.600 E224.43231
G1 X98.298 Y133.561 E226.32813
G1 X97.165 Y133.485 E228.22394
G1 X96.079 Y133.374 E230.04833
G1 X94.747 Y133.189 E232.29409
G1 X93.792 Y133.026 E233.91111
G1 X92.681 Y132.797 E235.80694
G1 X91.577 Y132.532 E237.70275
G1 X90.483 Y132.229 E239.59860
G1 X89.400 Y131.889 E241.49431
G1 X88.329 Y131.513 E243.39010
G1 X87.271 Y131.100 E245.28605
G1 X86.228 Y130.653 E247.18178
G1 X85.201 Y130.170 E249.07751
G1 X84.190 Y129.653 E250.97339
G1 X83.198 Y129.102 E252.86909
G1 X82.225 Y128.518 E254.76498
G1 X81.271 Y127.901 E256.66088
G1 X80.375 Y127.277 E258.48517
G1 X79.300 Y126.469 E260.73098
G1 X78.545 Y125.864 E262.34799
G1 X77.684 Y125.124 E264.24375
G1 X76.848 Y124.356 E266.13949
G1 X76.038 Y123.560 E268.03546
G1 X75.256 Y122.738 E269.93124
G1 X74.502 Y121.889 E271.82696
G1 X73.778 Y121.015 E273.72283
G1 X73.109 Y120.151 E275.54718
G1 X72.326 Y119.059 E277.79294
G1 X71.786 Y118.255 E279.40996
G1 X71.208 Y117.328 E281.23442
G1 X70.540 Y116.161 E283.48023
G1 X70.084 Y115.307 E285.09724
G1 X69.603 Y114.326 E286.92161
G1 X69.056 Y113.098 E289.16739
G1 X68.689 Y112.202 E290.78447
G1 X68.310 Y111.177 E292.60885
G1 X67.890 Y109.900 E294.85458
G1 X67.615 Y108.971 E296.47162
G1 X67.331 Y107.872 E298.36746
G1 X67.093 Y106.806 E300.19187
G1 X66.849 Y105.484 E302.43764
G1 X66.702 Y104.527 E304.05465
G1 X66.568 Y103.400 E305.95051
G1 X66.472 Y102.269 E307.84628
G1 X66.415 Y101.135 E309.74208
G1 X66.396 Y100.000 E311.63789
G1 X66.415 Y98.865 E313.53369
G1 X66.472 Y97.731 E315.42950
G1 X66.568 Y96.600 E317.32531
G1 X66.702 Y95.473 E319.22110
G1 X66.874 Y94.351 E321.11687
G1 X67.084 Y93.236 E323.01268
G1 X67.331 Y92.128 E324.90853
G1 X67.615 Y91.029 E326.80434
G1 X67.937 Y89.940 E328.70011
G1 X68.295 Y88.863 E330.59586
G1 X68.689 Y87.798 E332.49170
G1 X69.119 Y86.748 E334.38757
G1 X69.584 Y85.713 E336.28330
G1 X70.084 Y84.693 E338.17909
G1 X70.618 Y83.692 E340.07491
G1 X71.186 Y82.709 E341.97067
G1 X71.786 Y81.745 E343.86652
G1 X72.419 Y80.803 E345.76235
G1 X73.083 Y79.882 E347.65817
G1 X73.778 Y78.985 E349.55391
G1 X74.502 Y78.111 E351.44970
G1 X75.264 Y77.255 E353.36303
G1 E351.36303 F2400.00000
G92 E0
G1 X68.016 Y69.331 F7800.000
G1 E2.00000 F2400.00000
G1 F1800
G1 X68.399 Y68.928 E2.92784
G1 X69.448 Y67.897 E5.38460
G1 X70.708 Y66.746 E8.23483
G1 X71.704 Y65.890 E10.42837
G1 X72.873 Y64.954 E12.92860
G1 X74.072 Y64.058 E15.42883
G1 X75.300 Y63.203 E17.92903
G1 X76.557 Y62.390 E20.42932
G1 X77.841 Y61.619 E22.92956
G1 X79.150 Y60.893 E25.42975
G1 X80.459 Y60.223 E27.88649
G1 X82.006 Y59.502 E30.73671
G1 X83.213 Y58.984 E32.93022
G1 X84.608 Y58.440 E35.43054
G1 X86.021 Y57.944 E37.93081
G1 X87.449 Y57.496 E40.43099
G1 X88.892 Y57.097 E42.93119
G1 X90.347 Y56.746 E45.43142
G1 X91.813 Y56.444 E47.93166
G1 X93.289 Y56.193 E50.43191
G1 X94.772 Y55.991 E52.93213
G1 X96.262 Y55.840 E55.43234
G1 X97.755 Y55.739 E57.93259
G1 X99.225 Y55.689 E60.38932
G1 X100.932 Y55.694 E63.23953
G1 X102.245 Y55.739 E65.43312
G1 X103.738 Y55.840 E67.93337
G1 X105.228 Y55.991 E70.43358
G1 X106.711 Y56.193 E72.93379
G1 X108.187 Y56.444 E75.43403
G1 X109.653 Y56.746 E77.93428
G1 X111.108 Y57.097 E80.43453
G1 X112.551 Y57.496 E82.93473
G1 X113.979 Y57.944 E85.43488
G1 X115.392 Y58.440 E87.93517
G1 X116.787 Y58.984 E90.43546
G1 X118.139 Y59.564 E92.89213
G1 X119.681 Y60.295 E95.74237
G1 X120.850 Y60.893 E97.93592
G1 X122.136 Y61.607 E100.39263
G1 X123.597 Y62.489 E103.24290
G1 X124.700 Y63.203 E105.43647
G1 X125.928 Y64.058 E107.93668
G1 X127.127 Y64.954 E110.43691
G1 X128.296 Y65.890 E112.93713
G1 X129.431 Y66.866 E115.43735
G1 X130.534 Y67.878 E117.93762
G1 X131.601 Y68.928 E120.43787
G1 X132.633 Y70.013 E122.93806
G1 X133.627 Y71.132 E125.43833
G1 X134.583 Y72.285 E127.93854
G1 X135.483 Y73.448 E130.39521
G1 X136.477 Y74.835 E133.24542
G1 X137.209 Y75.925 E135.43903
G1 X138.001 Y77.196 E137.93934
G1 X138.750 Y78.492 E140.43953
G1 X139.454 Y79.813 E142.93975
G1 X140.113 Y81.157 E145.43993
G1 X140.727 Y82.523 E147.94013
G1 X141.294 Y83.908 E150.44046
G1 X141.814 Y85.312 E152.94072
G1 X142.286 Y86.733 E155.44088
G1 X142.710 Y88.168 E157.94111
G1 X143.085 Y89.618 E160.44134
G1 X143.405 Y91.053 E162.89810
G1 X143.715 Y92.732 E165.74829
G1 X143.914 Y94.030 E167.94183
G1 X144.091 Y95.516 E170.44213
G1 X144.215 Y96.982 E172.89882
G1 X144.296 Y98.687 E175.74905
G1 X144.318 Y100.000 E177.94260
G1 X144.293 Y101.497 E180.44284
G1 X144.217 Y102.992 E182.94308
G1 X144.091 Y104.484 E185.44327
G1 X143.914 Y105.970 E187.94357
G1 X143.688 Y107.450 E190.44379
G1 X143.411 Y108.921 E192.94395
G1 X143.085 Y110.382 E195.44425
G1 X142.710 Y111.832 E197.94448
G1 X142.286 Y113.267 E200.44474
G1 X141.814 Y114.688 E202.94489
G1 X141.294 Y116.092 E205.44513
G1 X140.727 Y117.477 E207.94544
G1 X140.113 Y118.843 E210.44567
G1 X139.454 Y120.187 E212.94585
G1 X138.750 Y121.508 E215.44606
G1 X138.001 Y122.804 E217.94627
G1 X137.223 Y124.053 E220.40306
G1 X136.267 Y125.467 E223.25333
G1 X135.499 Y126.532 E225.44681
G1 X134.583 Y127.715 E227.94705
G1 X133.627 Y128.868 E230.44731
G1 X132.633 Y129.987 E232.94751
G1 X131.601 Y131.072 E235.44772
G1 X130.534 Y132.122 E237.94800
G1 X129.431 Y133.134 E240.44824
G1 X128.296 Y134.110 E242.94846
G1 X127.127 Y135.046 E245.44868
G1 X125.928 Y135.942 E247.94893
G1 X124.700 Y136.797 E250.44910
G1 X123.465 Y137.596 E252.90581
G1 X121.999 Y138.470 E255.75613
G1 X120.850 Y139.107 E257.94967
